server/weather-icons/chancestorms.svg

<svg xmlns="http://www.w3.org/2000/svg" height="100" width="100">
<path d="M51.312,3.5625c-13.094,0-23.718,10.63-23.718,23.718,0,0.296,0.08,0.548,0.094,0.844-0.296-0.02-0.58-0.063-0.876-0.063-7.044,0-12.75,5.706-12.75,12.75,0,0.088,0.032,0.164,0.032,0.25-1.008-0.302-2.054-0.5-3.156-0.5-6.0435,0-10.938,4.901-10.938,10.938,0,6.043,4.8945,8.312,10.938,8.312h70.312c10.358,0,18.75-8.39,18.75-18.75,0-10.358-8.391-18.75-18.75-18.75-2.34,0-4.568,0.502-6.625,1.282-1.788-11.321-11.495-20.032-23.313-20.032zm-4.593,58.656l-11.969,20.531h8.562l-6.843,13.688,20.531-20.532h-10.281l8.562-13.687h-8.562zm-23.25,3.781l-9.031,24.812,1.937,0.719,9.313-25.531h-2.219zm10.343,0l-9.031,24.812,1.938,0.719,9.281-25.531h-2.188zm30.969,0l-9.031,24.812,1.938,0.719,9.281-25.531h-2.188zm10.313,0l-9,24.812,1.937,0.719,9.281-25.531h-2.218z"/>
</svg>

<?xml version="1.0" encoding="utf-8"?>
<!-- Generator: Adobe Illustrator 16.0.4, SVG Export Plug-In . SVG Version: 6.00 Build 0)  -->
<!DOCTYPE svg PUBLIC "-//W3C//DTD SVG 1.1//EN" "http://www.w3.org/Graphics/SVG/1.1/DTD/svg11.dtd">
<svg version="1.1" id="Layer_1" xmlns="http://www.w3.org/2000/svg" xmlns:xlink="http://www.w3.org/1999/xlink" x="0px" y="0px"
	 width="100px" height="100px" viewBox="0 0 100 100" enable-background="new 0 0 100 100" xml:space="preserve">
<path d="M51.312,3.562c-13.095,0-23.718,10.63-23.718,23.718c0,0.296,0.08,0.548,0.094,0.844c-0.296-0.02-0.58-0.063-0.876-0.063
	c-7.044,0-12.75,5.706-12.75,12.75c0,0.088,0.032,0.164,0.032,0.25c-1.008-0.302-2.054-0.5-3.156-0.5C4.895,40.562,0,45.462,0,51.5
	c0,6.043,4.895,8.312,10.938,8.312H81.25c10.357,0,18.75-8.39,18.75-18.75c0-10.358-8.391-18.75-18.75-18.75
	c-2.34,0-4.568,0.502-6.625,1.282C72.837,12.272,63.13,3.562,51.312,3.562L51.312,3.562z M46.719,62.219L34.75,82.75h8.562
	l-6.843,13.688L57,75.905H46.719l8.562-13.687H46.719z M23.469,66l-9.031,24.812l1.937,0.719L25.688,66H23.469z M33.812,66
	l-9.031,24.812l1.938,0.719L36,66H33.812z M64.781,66L55.75,90.812l1.938,0.719L66.969,66H64.781z M75.094,66l-9,24.812l1.938,0.719
	L77.312,66H75.094z"/>
<text transform="matrix(1 0 0 1 73.4619 40.2241)" fill="#231F20" stroke="#FFFFFF" stroke-miterlimit="10" font-family="'DejaVuSans'" font-size="50">?</text>
</svg>
